X:2129
T:The Crocodile 
C:James Clague & William Cannell, Balladoole 
C:Traditional
O:Isle of Man
Z:Clague collection
B:Kiaull Vannin #129 
M:2/4
L:1/4 
Q:60 
K:D 
D|F G|A A|B B|A A|d>e|f>e|e d-|d d| 
f f|e e|d d|F F|G B|A A|F D-|D E| 
D/D/ D/D/|F A|d2|d d/d/|e d/e/|f/d/|| 

